wp-content/themes/starter-theme/public/images/icons/phone.svg

<svg xmlns="http://www.w3.org/2000/svg" width="20" height="35" viewBox="0 0 20 35">
  <path fill-rule="evenodd" d="M3.8458278,8.8817842e-16 L16.1541722,0 C17.4914503,0 17.9763797,0.139238417 18.4652686,0.400699056 C18.9541574,0.662159695 19.3378403,1.04584256 19.5993009,1.53473144 C19.8607616,2.02362033 20,2.50854969 20,3.8458278 L20,31.1541722 C20,32.4914503 19.8607616,32.9763797 19.5993009,33.4652686 C19.3378403,33.9541574 18.9541574,34.3378403 18.4652686,34.5993009 C17.9763797,34.8607616 17.4914503,35 16.1541722,35 L3.8458278,35 C2.50854969,35 2.02362033,34.8607616 1.53473144,34.5993009 C1.04584256,34.3378403 0.662159695,33.9541574 0.400699056,33.4652686 C0.139238417,32.9763797 0,32.4914503 0,31.1541722 L0,3.8458278 C0,2.50854969 0.139238417,2.02362033 0.400699056,1.53473144 C0.662159695,1.04584256 1.04584256,0.662159695 1.53473144,0.400699056 C2.02362033,0.139238417 2.50854969,1.77635684e-15 3.8458278,8.8817842e-16 Z M2,5 L2,30 L18,30 L18,5 L2,5 Z M7.5,2 C7.22385763,2 7,2.22385763 7,2.5 C7,2.77614237 7.22385763,3 7.5,3 L12.5,3 C12.7761424,3 13,2.77614237 13,2.5 C13,2.22385763 12.7761424,2 12.5,2 L7.5,2 Z M10,34 C10.8284271,34 11.5,33.3284271 11.5,32.5 C11.5,31.6715729 10.8284271,31 10,31 C9.17157288,31 8.5,31.6715729 8.5,32.5 C8.5,33.3284271 9.17157288,34 10,34 Z"/>
</svg>

<svg xmlns="http://www.w3.org/2000/svg" width="20" height="35"><path fill-rule="evenodd" d="M3.846 0h12.308c1.337 0 1.822.14 2.311.4.49.262.873.646 1.134 1.135.262.489.401.974.401 2.31v27.31c0 1.336-.14 1.821-.4 2.31a2.726 2.726 0 0 1-1.135 1.134c-.489.262-.974.401-2.31.401H3.844c-1.336 0-1.821-.14-2.31-.4A2.726 2.726 0 0 1 .4 33.464c-.261-.488-.4-.973-.4-2.309V3.844c0-1.336.14-1.821.4-2.31A2.726 2.726 0 0 1 1.536.4c.488-.261.973-.4 2.309-.4zM2 5v25h16V5H2zm5.5-3a.5.5 0 0 0 0 1h5a.5.5 0 1 0 0-1h-5zM10 34a1.5 1.5 0 1 0 0-3 1.5 1.5 0 0 0 0 3z"/></svg>
